X:358
T: WIE KOENNTE DENN HEUTE DIE WELT NOCH BESTEHEN
N: E1528
O: Europa, Mitteleuropa, Deutschland, Hessen, Wetzlar
R: Staende -, Bergmanns - Lied
M: 6/8
L: 1/16
K: F
C2 | F3EF2A3GF2 | c3dc2A3G
F2 | G4d2c4E2 | F4f2c4
A2 | G3Gd2c4E2 | F6-F4z2
d6f6 | c6f4
A2 | G3Gd2c4E2 | F8z2

